X:207
T:Le Chat Noir
Z:robin.beech@mcgill.ca
R:reel
S:Andre Brunet & Eric Beaudry
M:4/4
L:1/8
K:Gm
DGGF GABc | AFcF dFcF | DGGF GABc | ABcB A3F |
DGGF GABc | AFcF dFcF | DGGA  dcBA |1 cBAB G3G :|2 cBAB G3^f |:
gdBG DGBd | ff=eg fcAc | dBBA BAGB | A/B/A^FA D3^f |
gdBG DGBd | ff=eg fccd | ecdB cABc |1 dcBA G3^f :| dcBA G3G |]
